src/assets/images/logo/flexip-white.svg

<svg width="116.99999999999999" height="25" xmlns="http://www.w3.org/2000/svg" fill="none">
 <g>
  <title>Layer 1</title>
  <path id="svg_1" fill="white" d="m52.624,1.376c0.672,0 1.216,0.056 1.632,0.168c0.432,0.096 0.712,0.184 0.84,0.264l-0.312,1.344c-0.176,-0.08 -0.44,-0.16 -0.792,-0.24c-0.336,-0.096 -0.768,-0.144 -1.296,-0.144c-1.104,0 -1.896,0.28 -2.376,0.84c-0.464,0.56 -0.696,1.456 -0.696,2.688l0,1.296l4.992,0l0,1.32l-4.992,0l0,11.088l-1.56,0l0,-13.752c0,-1.616 0.368,-2.832 1.104,-3.648c0.752,-0.816 1.904,-1.224 3.456,-1.224zm7.608,18.84c-0.528,-0.016 -0.992,-0.088 -1.392,-0.216c-0.384,-0.112 -0.712,-0.288 -0.984,-0.528c-0.256,-0.256 -0.456,-0.576 -0.6,-0.96c-0.128,-0.4 -0.192,-0.896 -0.192,-1.488l0,-15.36l1.56,-0.288l0,15.6c0,0.384 0.032,0.696 0.096,0.936c0.08,0.224 0.192,0.408 0.336,0.552c0.144,0.128 0.328,0.224 0.552,0.288c0.24,0.064 0.52,0.12 0.84,0.168l-0.216,1.296zm2.2286,-6.432c0,-1.088 0.152,-2.032 0.456,-2.832c0.32,-0.816 0.728,-1.496 1.224,-2.04c0.512,-0.544 1.088,-0.944 1.728,-1.2c0.656,-0.272 1.328,-0.408 2.016,-0.408c1.52,0 2.728,0.496 3.624,1.488c0.912,0.992 1.368,2.52 1.368,4.584c0,0.128 -0.008,0.256 -0.024,0.384c0,0.128 -0.008,0.248 -0.024,0.36l-8.712,0c0.048,1.52 0.424,2.688 1.128,3.504c0.704,0.816 1.824,1.224 3.36,1.224c0.848,0 1.52,-0.08 2.016,-0.24c0.496,-0.16 0.856,-0.296 1.08,-0.408l0.288,1.344c-0.224,0.128 -0.648,0.28 -1.272,0.456c-0.608,0.176 -1.328,0.264 -2.16,0.264c-1.088,0 -2.016,-0.16 -2.784,-0.48c-0.768,-0.32 -1.4,-0.768 -1.896,-1.344c-0.496,-0.576 -0.856,-1.256 -1.08,-2.04c-0.224,-0.8 -0.336,-1.672 -0.336,-2.616zm8.808,-0.984c-0.032,-1.296 -0.336,-2.304 -0.912,-3.024c-0.576,-0.72 -1.392,-1.08 -2.448,-1.08c-0.56,0 -1.064,0.112 -1.512,0.336c-0.432,0.224 -0.816,0.528 -1.152,0.912c-0.32,0.368 -0.576,0.8 -0.768,1.296c-0.176,0.496 -0.28,1.016 -0.312,1.56l7.104,0zm8.9725,1.584c-0.352,0.464 -0.704,0.952 -1.056,1.464c-0.352,0.512 -0.696,1.016 -1.032,1.512c-0.32,0.496 -0.616,0.976 -0.888,1.44c-0.272,0.448 -0.504,0.848 -0.696,1.2l-1.608,0c0.656,-1.232 1.344,-2.376 2.064,-3.432c0.72,-1.072 1.456,-2.12 2.208,-3.144l-4.032,-5.832l1.824,0l3.216,4.752l3.264,-4.752l1.704,0l-3.96,5.736c0.336,0.448 0.696,0.936 1.08,1.464c0.384,0.528 0.768,1.08 1.152,1.656c0.384,0.56 0.752,1.144 1.104,1.752c0.368,0.608 0.704,1.208 1.008,1.8l-1.68,0c-0.192,-0.352 -0.424,-0.752 -0.696,-1.2c-0.272,-0.464 -0.576,-0.944 -0.912,-1.44c-0.32,-0.496 -0.664,-1 -1.032,-1.512c-0.352,-0.512 -0.696,-1 -1.032,-1.464z"/>
  <path id="svg_2" fill="#8CAF23" d="m90.70427,20l-1.56,0l0,-12.408l1.56,0l0,12.408zm0.36,-16.152c0,0.368 -0.112,0.664 -0.336,0.888c-0.224,0.208 -0.496,0.312 -0.816,0.312c-0.32,0 -0.592,-0.104 -0.816,-0.312c-0.224,-0.224 -0.336,-0.52 -0.336,-0.888c0,-0.368 0.112,-0.656 0.336,-0.864c0.224,-0.224 0.496,-0.336 0.816,-0.336c0.32,0 0.592,0.112 0.816,0.336c0.224,0.208 0.336,0.496 0.336,0.864zm5.3354,13.92c0.144,0.112 0.32,0.232 0.528,0.36c0.224,0.128 0.48,0.248 0.768,0.36c0.288,0.112 0.6,0.208 0.936,0.288c0.336,0.064 0.688,0.096 1.056,0.096c0.768,0 1.408,-0.128 1.92,-0.384c0.528,-0.272 0.952,-0.632 1.272,-1.08c0.32,-0.464 0.552,-1 0.696,-1.608c0.144,-0.624 0.216,-1.28 0.216,-1.968c0,-1.632 -0.408,-2.88 -1.224,-3.744c-0.816,-0.88 -1.896,-1.32 -3.24,-1.32c-0.768,0 -1.392,0.04 -1.872,0.12c-0.464,0.064 -0.816,0.136 -1.056,0.216l0,8.664zm0,6.672l-1.5601,0l0,-16.416c0.464,-0.16 1.0561,-0.312 1.7761,-0.456c0.72,-0.144 1.632,-0.216 2.736,-0.216c0.912,0 1.736,0.152 2.472,0.456c0.752,0.288 1.392,0.712 1.92,1.272c0.544,0.56 0.96,1.24 1.248,2.04c0.304,0.8 0.456,1.704 0.456,2.712c0,0.944 -0.128,1.816 -0.384,2.616c-0.24,0.784 -0.6,1.464 -1.08,2.04c-0.48,0.56 -1.072,1 -1.776,1.32c-0.688,0.32 -1.48,0.48 -2.376,0.48c-0.816,0 -1.528,-0.112 -2.136,-0.336c-0.592,-0.24 -1.024,-0.464 -1.296,-0.672l0,5.16z"/>
  <path id="svg_3" fill="white" d="m20.7778,15.2778c-1.5278,0 -2.9945,-0.2445 -4.3634,-0.6967c-0.4277,-0.1344 -0.9044,-0.0367 -1.2466,0.2933l-2.6889,2.6889c-3.4589,-1.76 -6.29446,-4.5833 -8.05446,-8.05441l2.68889,-2.70111c0.34222,-0.31778 0.44,-0.79445 0.30556,-1.22222c-0.45222,-1.36889 -0.69667,-2.83556 -0.69667,-4.36334c0,-0.67222 -0.55,-1.22222 -1.22222,-1.22222l-4.27778,0c-0.67222,0 -1.22222,0.55 -1.22222,1.22222c0,11.47668 9.30111,20.77778 20.7778,20.77778c0.6722,0 1.2222,-0.55 1.2222,-1.2222l0,-4.2778c0,-0.6722 -0.55,-1.2222 -1.2222,-1.2222z"/>
  <path id="svg_4" fill="#8CAF23" d="m19.5556,11l2.4444,0c0,-6.07444 -4.9256,-11 -11,-11l0,2.44444c4.73,0 8.5556,3.82556 8.5556,8.55556zm-4.8889,0l2.4444,0c0,-3.37333 -2.7378,-6.11111 -6.1111,-6.11111l0,2.44444c2.0289,0 3.6667,1.63778 3.6667,3.66667z"/>
 </g>

</svg>

<svg width="117" height="25" viewBox="0 0 117 25" fill="none" xmlns="http://www.w3.org/2000/svg">
<path d="M52.624 1.376C53.296 1.376 53.84 1.432 54.256 1.544C54.688 1.64 54.968 1.728 55.096 1.808L54.784 3.152C54.608 3.072 54.344 2.992 53.992 2.912C53.656 2.816 53.224 2.768 52.696 2.768C51.592 2.768 50.8 3.048 50.32 3.608C49.856 4.168 49.624 5.064 49.624 6.296V7.592H54.616V8.912H49.624V20H48.064V6.248C48.064 4.632 48.432 3.416 49.168 2.6C49.92 1.784 51.072 1.376 52.624 1.376ZM60.232 20.216C59.704 20.2 59.24 20.128 58.84 20C58.456 19.888 58.128 19.712 57.856 19.472C57.6 19.216 57.4 18.896 57.256 18.512C57.128 18.112 57.064 17.616 57.064 17.024V1.664L58.624 1.376V16.976C58.624 17.36 58.656 17.672 58.72 17.912C58.8 18.136 58.912 18.32 59.056 18.464C59.2 18.592 59.384 18.688 59.608 18.752C59.848 18.816 60.128 18.872 60.448 18.92L60.232 20.216ZM62.4606 13.784C62.4606 12.696 62.6126 11.752 62.9166 10.952C63.2366 10.136 63.6446 9.456 64.1406 8.912C64.6526 8.368 65.2286 7.968 65.8686 7.712C66.5246 7.44 67.1966 7.304 67.8846 7.304C69.4046 7.304 70.6126 7.8 71.5086 8.792C72.4206 9.784 72.8766 11.312 72.8766 13.376C72.8766 13.504 72.8686 13.632 72.8526 13.76C72.8526 13.888 72.8446 14.008 72.8286 14.12H64.1166C64.1646 15.64 64.5406 16.808 65.2446 17.624C65.9486 18.44 67.0686 18.848 68.6046 18.848C69.4526 18.848 70.1246 18.768 70.6206 18.608C71.1166 18.448 71.4766 18.312 71.7006 18.2L71.9886 19.544C71.7646 19.672 71.3406 19.824 70.7166 20C70.1086 20.176 69.3886 20.264 68.5566 20.264C67.4686 20.264 66.5406 20.104 65.7726 19.784C65.0046 19.464 64.3726 19.016 63.8766 18.44C63.3806 17.864 63.0206 17.184 62.7966 16.4C62.5726 15.6 62.4606 14.728 62.4606 13.784ZM71.2686 12.8C71.2366 11.504 70.9326 10.496 70.3566 9.776C69.7806 9.056 68.9646 8.696 67.9086 8.696C67.3486 8.696 66.8446 8.808 66.3966 9.032C65.9646 9.256 65.5806 9.56 65.2446 9.944C64.9246 10.312 64.6686 10.744 64.4766 11.24C64.3006 11.736 64.1966 12.256 64.1646 12.8H71.2686ZM80.2411 14.384C79.8891 14.848 79.5371 15.336 79.1851 15.848C78.8331 16.36 78.4891 16.864 78.1531 17.36C77.8331 17.856 77.5371 18.336 77.2651 18.8C76.9931 19.248 76.7611 19.648 76.5691 20H74.9611C75.6171 18.768 76.3051 17.624 77.0251 16.568C77.7451 15.496 78.4811 14.448 79.2331 13.424L75.2011 7.592H77.0251L80.2411 12.344L83.5051 7.592H85.2091L81.2491 13.328C81.5851 13.776 81.9451 14.264 82.3291 14.792C82.7131 15.32 83.0971 15.872 83.4811 16.448C83.8651 17.008 84.2331 17.592 84.5851 18.2C84.9531 18.808 85.2891 19.408 85.5931 20H83.9131C83.7211 19.648 83.4891 19.248 83.2171 18.8C82.9451 18.336 82.6411 17.856 82.3051 17.36C81.9851 16.864 81.6411 16.36 81.2731 15.848C80.9211 15.336 80.5771 14.848 80.2411 14.384Z" fill="white"/>
<path d="M95.3506 20H93.7906V7.592H95.3506V20ZM95.7106 3.848C95.7106 4.216 95.5986 4.512 95.3746 4.736C95.1506 4.944 94.8786 5.048 94.5586 5.048C94.2386 5.048 93.9666 4.944 93.7426 4.736C93.5186 4.512 93.4066 4.216 93.4066 3.848C93.4066 3.48 93.5186 3.192 93.7426 2.984C93.9666 2.76 94.2386 2.648 94.5586 2.648C94.8786 2.648 95.1506 2.76 95.3746 2.984C95.5986 3.192 95.7106 3.48 95.7106 3.848ZM101.046 17.768C101.19 17.88 101.366 18 101.574 18.128C101.798 18.256 102.054 18.376 102.342 18.488C102.63 18.6 102.942 18.696 103.278 18.776C103.614 18.84 103.966 18.872 104.334 18.872C105.102 18.872 105.742 18.744 106.254 18.488C106.782 18.216 107.206 17.856 107.526 17.408C107.846 16.944 108.078 16.408 108.222 15.8C108.366 15.176 108.438 14.52 108.438 13.832C108.438 12.2 108.03 10.952 107.214 10.088C106.398 9.208 105.318 8.768 103.974 8.768C103.206 8.768 102.582 8.808 102.102 8.888C101.638 8.952 101.286 9.024 101.046 9.104V17.768ZM101.046 24.44H99.4859V8.024C99.9499 7.864 100.542 7.712 101.262 7.568C101.982 7.424 102.894 7.352 103.998 7.352C104.91 7.352 105.734 7.504 106.47 7.808C107.222 8.096 107.862 8.52 108.39 9.08C108.934 9.64 109.35 10.32 109.638 11.12C109.942 11.92 110.094 12.824 110.094 13.832C110.094 14.776 109.966 15.648 109.71 16.448C109.47 17.232 109.11 17.912 108.63 18.488C108.15 19.048 107.558 19.488 106.854 19.808C106.166 20.128 105.374 20.288 104.478 20.288C103.662 20.288 102.95 20.176 102.342 19.952C101.75 19.712 101.318 19.488 101.046 19.28V24.44Z" fill="#8CAF23"/>
<path d="M20.7778 15.2778C19.25 15.2778 17.7833 15.0333 16.4144 14.5811C15.9867 14.4467 15.51 14.5444 15.1678 14.8744L12.4789 17.5633C9.02 15.8033 6.18444 12.98 4.42444 9.50889L7.11333 6.80778C7.45555 6.49 7.55333 6.01333 7.41889 5.58556C6.96667 4.21667 6.72222 2.75 6.72222 1.22222C6.72222 0.55 6.17222 0 5.5 0H1.22222C0.55 0 0 0.55 0 1.22222C0 12.6989 9.30111 22 20.7778 22C21.45 22 22 21.45 22 20.7778V16.5C22 15.8278 21.45 15.2778 20.7778 15.2778Z" fill="white"/>
<path d="M19.5556 11H22C22 4.92556 17.0744 0 11 0V2.44444C15.73 2.44444 19.5556 6.27 19.5556 11ZM14.6667 11H17.1111C17.1111 7.62667 14.3733 4.88889 11 4.88889V7.33333C13.0289 7.33333 14.6667 8.97111 14.6667 11Z" fill="#8CAF23"/>
</svg>
